icons/tag-cross-outline.svg

<svg xmlns="http://www.w3.org/2000/svg" width="24" height="24" viewBox="0 0 24 24">
  <path d="M13,2 C13.2652165,2 13.5195704,2.10535684 13.7071068,2.29289322 L13.7071068,2.29289322 L21.2928932,9.87867966 C22.4644661,11.0502525 22.4644661,12.9497475 21.2928932,14.1213203 L21.2928932,14.1213203 L14.1213203,21.2928932 C12.9497475,22.4644661 11.0502525,22.4644661 9.87867966,21.2928932 L9.87867966,21.2928932 L2.29289322,13.7071068 C2.10535684,13.5195704 2,13.2652165 2,13 L2,13 L2,5 C2,3.34314575 3.34314575,2 5,2 L5,2 Z M12.585,4 L5,4 C4.44771525,4 4,4.44771525 4,5 L4,5 L4,12.585 L11.2928932,19.8786797 C11.6533772,20.2391636 12.2206082,20.2668932 12.6128994,19.9618683 L12.6128994,19.9618683 L12.7071068,19.8786797 L19.8786797,12.7071068 C20.2692039,12.3165825 20.2692039,11.6834175 19.8786797,11.2928932 L19.8786797,11.2928932 L12.585,4 Z M10.6128994,9.20970461 L10.7071068,9.29289322 L12,10.585 L13.2928932,9.29289322 C13.6834175,8.90236893 14.3165825,8.90236893 14.7071068,9.29289322 C15.0675907,9.65337718 15.0953203,10.2206082 14.7902954,10.6128994 L14.7071068,10.7071068 L13.415,12 L14.7071068,13.2928932 C15.0976311,13.6834175 15.0976311,14.3165825 14.7071068,14.7071068 C14.3466228,15.0675907 13.7793918,15.0953203 13.3871006,14.7902954 L13.2928932,14.7071068 L12,13.415 L10.7071068,14.7071068 C10.3165825,15.0976311 9.68341751,15.0976311 9.29289322,14.7071068 C8.93240926,14.3466228 8.90467972,13.7793918 9.20970461,13.3871006 L9.29289322,13.2928932 L10.585,12 L9.29289322,10.7071068 C8.90236893,10.3165825 8.90236893,9.68341751 9.29289322,9.29289322 C9.65337718,8.93240926 10.2206082,8.90467972 10.6128994,9.20970461 Z"/>
</svg>

<svg xmlns="http://www.w3.org/2000/svg" viewBox="0 0 24 24">
  <path d="M13 2a1 1 0 0 1 .7.3l7.6 7.58a3 3 0 0 1 0 4.24l-7.18 7.17a3 3 0 0 1-4.24 0l-7.59-7.58A1 1 0 0 1 2 13V5a3 3 0 0 1 3-3zm-.41 2H5a1 1 0 0 0-1 1v7.59l7.3 7.29a1 1 0 0 0 1.31.08l.1-.08 7.17-7.17a1 1 0 0 0 0-1.42L12.58 4zM10.6 9.21l.1.08L12 10.6l1.3-1.3a1 1 0 0 1 1.49 1.32l-.08.1L13.4 12l1.3 1.3a1 1 0 0 1-1.32 1.49l-.1-.08L12 13.4l-1.3 1.3a1 1 0 0 1-1.49-1.32l.08-.1L10.6 12l-1.3-1.3a1 1 0 0 1 1.32-1.49z"/>
</svg>
